X:0911
T:Cauld Kail
P:Cauld Kail in Aberdeen
C:Johnson's Musical Museum, 1788
R:Medley (8x32)
B:RSCDS 9-11
Z:Anselm Lingnau <anselm@strathspey.org>
M:4/4
L:1/8
K:Eb
|:E|"Eb"G>B "F7"e>c "Eb/G"B>G "F/A"F>E|"Eb"G>B "Cm"c/>d/e/c/ "Gm"B2 "Cm"E z/E/|\
    "Eb"G>B "Cm"e>c "Gm"B>G "Fm/A"F>E|"Eb"G>B "Ab"c/>d/e/c/ "Bb"B2 "Eb"E:|
|:c|"Eb"B<e g>e "Bb"f>d c>B|"Eb"e>f "F7"g>e "Bb"f>d B>B|\
    "Cm"e>f g>e "F"a>f "Bb"df//e//d//c//|"Eb"B>G "Ab"e>c "Bb7"B2 "Eb"E:|
P:Lady Charlotte Campbell's Medley
C:Robert Mackintosh - Gow's Repository
M:C|
L:1/8
K:Bb
|:F|"Bb"B3f dBfd|"F7"edcB AFcA|"Bb"B2 bf dBfB|"F7"AFec "Bb"dBB:|
d|"Bb"f2 d>b "Eb"g2 E>e|"F"c2 A>a "Bb/D"f2 D>d|\
  "Gm"B2 Bg "Cm"edcB|"F"AcFe "Bb"dBBf|
  "Bb"fBag "Eb"gfed|"F"cAag "Bb"fedc|"Gm"BGgf "Cm"edcB|"F7"cAec "Bb"dBB|]

